static/img/logos/safespring_partners_scaleout-systems.svg

<svg width="173" height="25" viewBox="0 0 173 25" fill="none" xmlns="http://www.w3.org/2000/svg">
<path d="M57.5747 23.411C55.6264 23.411 54.0167 22.9995 52.7456 22.1764C51.4849 21.3533 50.7035 20.2072 50.4014 18.7382L52.2455 18.4256C52.506 19.4258 53.1207 20.2229 54.0896 20.8167C55.0586 21.4106 56.2463 21.7075 57.6528 21.7075C59.049 21.7075 60.1586 21.4106 60.9816 20.8167C61.8047 20.2229 62.2163 19.4102 62.2163 18.3787C62.2163 17.8161 62.086 17.3577 61.8256 17.0035C61.5755 16.6388 61.0754 16.3054 60.3253 16.0032C59.5751 15.7011 58.4603 15.3469 56.9808 14.9405C55.418 14.5238 54.1938 14.107 53.3082 13.6903C52.433 13.2735 51.8131 12.7995 51.4485 12.2681C51.0942 11.7368 50.9171 11.0856 50.9171 10.3146C50.9171 9.38732 51.1828 8.57466 51.7141 7.8766C52.2455 7.16812 52.9852 6.61593 53.9333 6.22001C54.8919 5.8241 55.9963 5.62614 57.2465 5.62614C58.4968 5.62614 59.622 5.83452 60.6222 6.25127C61.6224 6.6576 62.4299 7.23063 63.0446 7.97037C63.6593 8.69968 64.0135 9.54881 64.1073 10.5178L62.2631 10.8616C62.086 9.77803 61.539 8.92369 60.6222 8.29856C59.7053 7.66301 58.5593 7.34003 57.184 7.32961C55.8816 7.30877 54.8189 7.56924 53.9958 8.11102C53.1728 8.64238 52.7612 9.34565 52.7612 10.2208C52.7612 10.7209 52.9019 11.1481 53.1832 11.5023C53.4749 11.8462 53.9854 12.1639 54.7147 12.4557C55.4441 12.7474 56.4755 13.0599 57.8091 13.3933C59.4345 13.8101 60.7003 14.2373 61.6068 14.6749C62.5236 15.1124 63.1696 15.6282 63.5447 16.222C63.9197 16.8055 64.1073 17.5296 64.1073 18.3944C64.1073 19.9572 63.5238 21.1866 62.3569 22.0826C61.2004 22.9682 59.6064 23.411 57.5747 23.411Z" fill="#151515"/>
<path d="M74.4697 23.4423C72.7819 23.4423 71.3597 23.0672 70.2032 22.317C69.0468 21.5565 68.1664 20.5094 67.5621 19.1758C66.9682 17.8317 66.6609 16.2846 66.64 14.5342C66.6609 12.7526 66.9734 11.195 67.5777 9.86138C68.1924 8.51735 69.078 7.47547 70.2345 6.73574C71.391 5.99601 72.8079 5.62614 74.4854 5.62614C76.1211 5.62614 77.5589 6.02206 78.7987 6.81388C80.049 7.59529 80.9137 8.67363 81.393 10.0489L79.6427 10.6897C79.2155 9.63737 78.5435 8.82471 77.6266 8.25167C76.7098 7.66822 75.6575 7.3765 74.4697 7.3765C73.1361 7.3765 72.0369 7.68385 71.1722 8.29856C70.3074 8.90285 69.6615 9.74156 69.2343 10.8147C68.8071 11.8878 68.5831 13.1277 68.5623 14.5342C68.5935 16.6909 69.0988 18.4256 70.0782 19.7384C71.068 21.0407 72.5318 21.6919 74.4697 21.6919C75.6679 21.6919 76.7046 21.4158 77.5797 20.8636C78.4653 20.3114 79.1426 19.5092 79.6114 18.4569L81.393 19.0664C80.7366 20.4937 79.8198 21.5825 78.6425 22.3327C77.4651 23.0724 76.0742 23.4423 74.4697 23.4423Z" fill="#151515"/>
<path d="M89.486 23.4423C88.1836 23.4423 87.1001 23.213 86.2353 22.7546C85.381 22.2962 84.7402 21.6919 84.313 20.9418C83.8859 20.1812 83.6723 19.3581 83.6723 18.4725C83.6723 17.514 83.8702 16.7117 84.2662 16.0658C84.6725 15.4198 85.209 14.8989 85.8759 14.5029C86.5531 14.107 87.298 13.8101 88.1107 13.6121C89.038 13.4038 90.0382 13.2266 91.1113 13.0808C92.1844 12.9245 93.2055 12.7891 94.1744 12.6744C95.1538 12.5598 95.9508 12.4609 96.5655 12.3775L95.9091 12.7682C95.9508 10.9449 95.607 9.59049 94.8777 8.70489C94.1588 7.80888 92.8877 7.36087 91.0644 7.36087C89.7829 7.36087 88.7254 7.65259 87.8919 8.23605C87.0688 8.80908 86.4906 9.69988 86.1572 10.9085L84.313 10.3927C84.6985 8.86117 85.4747 7.68385 86.6416 6.86077C87.8085 6.03768 89.3036 5.62614 91.1269 5.62614C92.6793 5.62614 93.9817 5.92829 95.034 6.53258C96.0967 7.13686 96.8364 7.986 97.2532 9.07997C97.4303 9.52797 97.5501 10.0541 97.6126 10.6584C97.6751 11.2523 97.7064 11.8514 97.7064 12.4557V22.9734H96.0654V18.535L96.6749 18.6913C96.1644 20.2124 95.2736 21.3845 94.0025 22.2076C92.7314 23.0307 91.2259 23.4423 89.486 23.4423ZM89.5797 21.7857C90.7258 21.7857 91.7312 21.5825 92.596 21.1762C93.4607 20.7594 94.1588 20.1812 94.6901 19.4414C95.2319 18.6913 95.5757 17.8109 95.7216 16.8003C95.8258 16.2377 95.8831 15.6282 95.8935 14.9718C95.9039 14.3154 95.9091 13.8309 95.9091 13.5184L96.6905 14.0185C96.0133 14.1018 95.2007 14.1904 94.2526 14.2841C93.3149 14.3779 92.3563 14.4925 91.377 14.628C90.3976 14.7634 89.512 14.9353 88.7202 15.1437C88.2305 15.2791 87.7356 15.4771 87.2355 15.7376C86.7458 15.9876 86.3343 16.3366 86.0009 16.7847C85.6779 17.2327 85.5164 17.8005 85.5164 18.4881C85.5164 18.9986 85.6414 19.5092 85.8915 20.0197C86.1519 20.5302 86.5791 20.9522 87.173 21.2856C87.7669 21.619 88.5691 21.7857 89.5797 21.7857Z" fill="#151515"/>
<path d="M102.077 22.9734V0H103.874V22.9734H102.077Z" fill="#151515"/>
<path d="M115.526 23.4423C113.911 23.4423 112.515 23.0828 111.337 22.3639C110.16 21.6346 109.248 20.6083 108.602 19.2852C107.956 17.9516 107.633 16.3783 107.633 14.5655C107.633 12.7213 107.951 11.1325 108.587 9.79886C109.233 8.45484 110.139 7.42338 111.306 6.70449C112.483 5.98559 113.88 5.62614 115.494 5.62614C117.13 5.62614 118.526 6.00122 119.683 6.75137C120.85 7.4911 121.735 8.56424 122.34 9.97077C122.954 11.3773 123.246 13.0704 123.215 15.0499H121.339V14.4248C121.287 12.1118 120.766 10.3511 119.777 9.14248C118.787 7.9339 117.37 7.32961 115.526 7.32961C113.619 7.32961 112.145 7.95995 111.103 9.22062C110.071 10.4709 109.556 12.2421 109.556 14.5342C109.556 16.8055 110.071 18.5663 111.103 19.8165C112.145 21.0668 113.609 21.6919 115.494 21.6919C116.797 21.6919 117.932 21.3898 118.901 20.7855C119.881 20.1708 120.657 19.2956 121.23 18.1599L122.855 18.8788C122.178 20.3375 121.199 21.4627 119.917 22.2545C118.636 23.0463 117.172 23.4423 115.526 23.4423ZM108.868 15.0499V13.4246H122.199V15.0499H108.868Z" fill="#151515"/>
<path d="M133.595 23.4423C131.918 23.4423 130.495 23.062 129.329 22.3014C128.162 21.5408 127.271 20.4885 126.656 19.1445C126.041 17.8005 125.734 16.2533 125.734 14.5029C125.734 12.7422 126.047 11.195 126.672 9.86138C127.297 8.51735 128.193 7.47547 129.36 6.73574C130.537 5.99601 131.949 5.62614 133.595 5.62614C135.272 5.62614 136.695 6.00643 137.862 6.767C139.039 7.51715 139.93 8.55903 140.534 9.89263C141.149 11.2262 141.456 12.763 141.456 14.5029C141.456 16.2846 141.149 17.8474 140.534 19.1914C139.919 20.525 139.023 21.5669 137.846 22.317C136.669 23.0672 135.252 23.4423 133.595 23.4423ZM133.595 21.6919C135.585 21.6919 137.07 21.0251 138.049 19.6915C139.039 18.3579 139.534 16.6284 139.534 14.5029C139.534 12.3358 139.039 10.6063 138.049 9.31439C137.059 8.02246 135.575 7.3765 133.595 7.3765C132.251 7.3765 131.141 7.68385 130.266 8.29856C129.391 8.90285 128.735 9.74156 128.297 10.8147C127.87 11.8774 127.656 13.1068 127.656 14.5029C127.656 16.67 128.156 18.41 129.157 19.7228C130.167 21.0355 131.647 21.6919 133.595 21.6919Z" fill="#151515"/>
<path d="M151.38 23.3641C150.453 23.3641 149.619 23.2287 148.88 22.9578C148.15 22.6869 147.515 22.3066 146.973 21.8169C146.431 21.3168 145.983 20.7334 145.629 20.0666C145.275 19.3894 145.009 18.6496 144.832 17.8474C144.665 17.0451 144.582 16.2064 144.582 15.3312V6.09499H146.395V14.878C146.395 15.9407 146.499 16.8888 146.707 17.7223C146.926 18.5558 147.249 19.2643 147.676 19.8478C148.114 20.4312 148.656 20.874 149.302 21.1762C149.958 21.4783 150.729 21.6294 151.615 21.6294C152.531 21.6294 153.323 21.4731 153.99 21.1605C154.667 20.8376 155.219 20.3896 155.647 19.8165C156.084 19.2435 156.407 18.5663 156.616 17.7849C156.834 16.993 156.944 16.1335 156.944 15.2062L158.366 15.3781C158.366 17.2014 158.053 18.7069 157.428 19.8947C156.814 21.072 155.98 21.9472 154.928 22.5202C153.875 23.0828 152.693 23.3641 151.38 23.3641ZM157.116 22.9734V19.1758H156.944V6.09499H158.757V22.9734H157.116Z" fill="#151515"/>
<path d="M172.072 22.9734C171.176 23.1714 170.29 23.2443 169.415 23.1922C168.54 23.1505 167.759 22.9578 167.071 22.614C166.394 22.2597 165.883 21.718 165.539 20.9886C165.258 20.3948 165.102 19.7957 165.071 19.1914C165.039 18.5871 165.024 17.8943 165.024 17.1128V1.40653H166.837V17.0816C166.837 17.7901 166.842 18.3787 166.852 18.8476C166.873 19.306 166.982 19.728 167.18 20.1135C167.556 20.8324 168.149 21.2699 168.962 21.4262C169.775 21.5721 170.811 21.546 172.072 21.3481V22.9734ZM161.242 7.73594V6.09499H172.072V7.73594H161.242Z" fill="#151515"/>
<path d="M31.2688 21.6294C29.186 21.6294 27.2128 20.8073 25.7604 19.3548L26.7196 18.3957C27.9254 19.6015 29.5422 20.2866 31.2688 20.2866C32.9953 20.2866 34.6122 19.6289 35.818 18.3957C37.0238 17.1899 37.7089 15.573 37.7089 13.8465C37.7089 12.12 37.0512 10.5031 35.818 9.29725C34.6122 8.09143 32.9953 7.40631 31.2688 7.40631C29.5422 7.40631 27.9254 8.06403 26.7196 9.29725L16.662 19.3548C15.1821 20.8347 13.2364 21.6294 11.1536 21.6294C9.07082 21.6294 7.09767 20.8073 5.64521 19.3548C4.16535 17.875 3.37061 15.9292 3.37061 13.8465C3.37061 11.7637 4.19276 9.79053 5.64521 8.33808C7.12508 6.85821 9.07082 6.06348 11.1536 6.06348C13.2364 6.06348 15.2095 6.88562 16.662 8.33808L15.7028 9.29725C14.497 8.09143 12.8801 7.40631 11.1536 7.40631C9.42709 7.40631 7.8102 8.06403 6.60438 9.29725C5.39857 10.5031 4.71345 12.12 4.71345 13.8465C4.71345 15.573 5.37117 17.1899 6.60438 18.3957C7.8102 19.6015 9.42709 20.2866 11.1536 20.2866C12.8801 20.2866 14.497 19.6289 15.7028 18.3957L25.7604 8.33808C27.2402 6.85821 29.186 6.06348 31.2688 6.06348C33.3515 6.06348 35.3247 6.88562 36.7771 8.33808C38.257 9.81794 39.0517 11.7637 39.0517 13.8465C39.0517 15.9292 38.2296 17.9024 36.7771 19.3548C35.3247 20.8073 33.3515 21.6294 31.2688 21.6294Z" fill="#151515"/>
<path d="M31.269 24.9999C28.4189 24.9999 25.5414 23.9037 23.3764 21.7388L24.3356 20.7796C28.1723 24.6163 34.3932 24.6163 38.2025 20.7796C42.0392 16.9429 42.0392 10.722 38.2025 6.91273C36.339 5.0492 33.8999 4.03522 31.269 4.03522C28.6382 4.03522 26.1991 5.0492 24.3356 6.91273L14.278 16.9703C13.4559 17.7925 12.3323 18.2583 11.1539 18.2583C9.97547 18.2583 8.85187 17.7925 8.02972 16.9703C7.20758 16.1482 6.7417 15.0246 6.7417 13.8462C6.7417 12.6677 7.20758 11.5442 8.02972 10.722C8.85187 9.89986 9.97547 9.43397 11.1539 9.43397C12.3323 9.43397 13.4559 9.89986 14.278 10.722L13.3189 11.6812C12.7434 11.1057 11.976 10.7768 11.1539 10.7768C10.3317 10.7768 9.5644 11.1057 8.98889 11.6812C8.41339 12.2567 8.08454 13.024 8.08454 13.8462C8.08454 14.6683 8.41339 15.4356 8.98889 16.0111C9.5644 16.5866 10.3317 16.9155 11.1539 16.9155C11.976 16.9155 12.7434 16.5866 13.3189 16.0111L23.3764 5.95356C25.4866 3.84339 28.2819 2.69238 31.269 2.69238C34.2562 2.69238 37.0515 3.84339 39.1617 5.95356C41.2718 8.06373 42.4228 10.859 42.4228 13.8462C42.4228 16.8333 41.2718 19.6286 39.1617 21.7388C36.9967 23.9037 34.1466 24.9999 31.269 24.9999Z" fill="#151515"/>
<path d="M11.1538 24.9999C8.16665 24.9999 5.37135 23.8489 3.26118 21.7388C1.151 19.6286 0 16.8333 0 13.8462C0 10.859 1.151 8.06373 3.26118 5.95356C5.37135 3.84339 8.16665 2.69238 11.1538 2.69238C14.1409 2.69238 16.9362 3.84339 19.0464 5.95356L18.0872 6.91273C14.2505 3.07605 8.02962 3.07605 4.22035 6.91273C0.383666 10.7494 0.383666 16.9703 4.22035 20.7796C6.08388 22.6431 8.52292 23.6571 11.1538 23.6571C13.7847 23.6571 16.2237 22.6431 18.0872 20.7796L28.1448 10.722C28.9669 9.89986 30.0905 9.43397 31.2689 9.43397C32.4474 9.43397 33.571 9.89986 34.3931 10.722C35.2153 11.5442 35.6811 12.6677 35.6811 13.8462C35.6811 15.0246 35.2153 16.1482 34.3931 16.9703C33.571 17.7925 32.4474 18.2583 31.2689 18.2583C30.0905 18.2583 28.9669 17.7925 28.1448 16.9703L29.104 16.0111C29.6795 16.5866 30.4468 16.9155 31.2689 16.9155C32.0911 16.9155 32.8584 16.5866 33.4339 16.0111C34.0094 15.4356 34.3383 14.6683 34.3383 13.8462C34.3383 13.024 34.0094 12.2567 33.4339 11.6812C32.8584 11.1057 32.0911 10.7768 31.2689 10.7768C30.4468 10.7768 29.6795 11.1057 29.104 11.6812L19.0464 21.7388C16.9362 23.8489 14.1409 24.9999 11.1538 24.9999Z" fill="#151515"/>
</svg>

<svg xmlns="http://www.w3.org/2000/svg" width="173" height="25" fill="none" viewBox="0 0 173 25"><path fill="#151515" d="M57.57 23.41a8.7 8.7 0 0 1-4.82-1.23 5.2 5.2 0 0 1-2.35-3.44l1.85-.31q.39 1.5 1.84 2.39t3.56.89 3.33-.9 1.24-2.43q0-.84-.4-1.38-.36-.55-1.5-1a33 33 0 0 0-3.34-1.06 23 23 0 0 1-3.67-1.25q-1.32-.63-1.86-1.42a3.4 3.4 0 0 1-.53-1.96q0-1.39.8-2.43a5 5 0 0 1 2.21-1.66q1.44-.6 3.32-.6t3.37.63q1.5.6 2.42 1.72.92 1.1 1.07 2.55l-1.85.34a3.7 3.7 0 0 0-1.64-2.56 6 6 0 0 0-3.44-.97 5.5 5.5 0 0 0-3.18.78q-1.24.8-1.24 2.11 0 .75.42 1.28.44.52 1.53.96 1.1.43 3.1.93 2.43.63 3.8 1.28a4.5 4.5 0 0 1 1.93 1.55q.57.88.57 2.17a4.4 4.4 0 0 1-1.75 3.7q-1.73 1.32-4.79 1.32m16.9.03a7.7 7.7 0 0 1-4.27-1.12 7 7 0 0 1-2.64-3.14q-.9-2.03-.92-4.65.03-2.66.94-4.67a7 7 0 0 1 2.65-3.12 7.7 7.7 0 0 1 4.26-1.11q2.45 0 4.3 1.18a6 6 0 0 1 2.6 3.24l-1.75.64a5 5 0 0 0-2.01-2.44 6 6 0 0 0-3.16-.87q-2 0-3.3.92a5.4 5.4 0 0 0-1.94 2.51 10 10 0 0 0-.67 3.72q.05 3.25 1.52 5.2 1.48 1.96 4.39 1.96a5.3 5.3 0 0 0 5.14-3.23l1.78.6a7.4 7.4 0 0 1-2.75 3.27 7.7 7.7 0 0 1-4.17 1.11m15.02 0q-1.95 0-3.25-.69a4.7 4.7 0 0 1-2.57-4.28q0-1.44.6-2.4.6-.97 1.6-1.57 1.02-.6 2.24-.89 1.4-.3 3-.53 1.61-.25 3.06-.4l2.4-.3-.66.39q.06-2.74-1.03-4.07-1.08-1.35-3.82-1.34a5.4 5.4 0 0 0-3.17.88 4.6 4.6 0 0 0-1.73 2.67l-1.85-.52a6 6 0 0 1 2.33-3.53 7.6 7.6 0 0 1 4.49-1.23q2.32 0 3.9.9 1.6.9 2.22 2.55.27.67.36 1.58.1.9.1 1.8v10.51h-1.64v-4.43l.6.15A6.5 6.5 0 0 1 94 22.21a8 8 0 0 1-4.51 1.23m.09-1.65q1.72 0 3.02-.61 1.3-.63 2.09-1.74.81-1.12 1.03-2.64.15-.84.17-1.83l.02-1.45.78.5q-1.02.12-2.44.26-1.41.14-2.87.35t-2.66.51a8 8 0 0 0-1.48.6q-.74.38-1.24 1.04a3 3 0 0 0-.48 1.7q0 .78.37 1.54.4.76 1.28 1.27.9.5 2.41.5m12.5 1.18V0h1.8v22.97zm13.45.47a8 8 0 0 1-4.2-1.08 7.3 7.3 0 0 1-2.73-3.07q-.97-2-.97-4.72 0-2.77.96-4.77a7 7 0 0 1 2.72-3.1 8 8 0 0 1 4.18-1.07q2.46 0 4.2 1.12a7 7 0 0 1 2.65 3.22q.91 2.1.88 5.08h-1.88v-.63q-.07-3.46-1.56-5.28-1.5-1.8-4.25-1.81-2.87 0-4.43 1.9-1.54 1.86-1.54 5.3 0 3.42 1.54 5.29a5.4 5.4 0 0 0 4.4 1.87q1.95 0 3.4-.9a6.4 6.4 0 0 0 2.33-2.63l1.63.72a7.6 7.6 0 0 1-2.94 3.37 8 8 0 0 1-4.4 1.2m-6.66-8.39v-1.63h13.33v1.63zm24.74 8.38q-2.52 0-4.27-1.14a7.3 7.3 0 0 1-2.67-3.16q-.93-2.01-.93-4.64t.94-4.64a7 7 0 0 1 2.69-3.12 8 8 0 0 1 4.23-1.11q2.52 0 4.27 1.14a7 7 0 0 1 2.67 3.12q.93 2 .93 4.61 0 2.67-.93 4.7a7 7 0 0 1-2.68 3.12 7.7 7.7 0 0 1-4.25 1.12m0-1.75q2.98 0 4.45-2a8.5 8.5 0 0 0 1.48-5.19q0-3.25-1.48-5.19-1.5-1.93-4.46-1.93-2.01 0-3.32.92a5.5 5.5 0 0 0-1.97 2.51 10 10 0 0 0-.64 3.7q0 3.24 1.5 5.21t4.44 1.97m17.78 1.67q-1.4 0-2.5-.4a5.8 5.8 0 0 1-3.25-2.9 9 9 0 0 1-.8-2.21q-.25-1.2-.25-2.52V6.1h1.81v8.79q0 1.59.32 2.84.33 1.25.97 2.13.65.87 1.62 1.33.99.45 2.31.45 1.38 0 2.38-.47a4.4 4.4 0 0 0 1.66-1.34q.65-.86.97-2.04t.32-2.57l1.43.17q0 2.74-.94 4.51a6 6 0 0 1-2.5 2.63 7.4 7.4 0 0 1-3.55.84m5.74-.39v-3.8h-.18V6.1h1.82v16.88zm14.95-.01q-1.35.3-2.66.22a6 6 0 0 1-2.34-.58 3.4 3.4 0 0 1-1.53-1.62q-.42-.9-.47-1.8t-.05-2.08V1.41h1.82v15.67l.01 1.77q.03.69.33 1.26.57 1.08 1.78 1.32 1.22.21 3.11-.08zM161.24 7.74V6.09h10.83v1.65zM31.27 21.63a7.8 7.8 0 0 1-5.51-2.28l.96-.95a6.4 6.4 0 0 0 9.1 0 6.4 6.4 0 0 0 0-9.1 6.4 6.4 0 0 0-9.1 0L16.66 19.35a7.77 7.77 0 1 1-5.5-13.3c2.08.01 4.05.84 5.5 2.29l-.96.96a6.4 6.4 0 0 0-9.1 0 6.4 6.4 0 0 0 0 9.1 6.4 6.4 0 0 0 9.1 0L25.76 8.34a7.77 7.77 0 1 1 5.5 13.3"/><path fill="#151515" d="M31.27 25c-2.85 0-5.73-1.1-7.9-3.26l.97-.96a9.8 9.8 0 0 0 13.86 0 9.8 9.8 0 0 0-6.93-16.74 9.7 9.7 0 0 0-6.93 2.87L14.28 16.97a4.42 4.42 0 1 1 0-6.25l-.96.96a3.05 3.05 0 0 0-4.33 0 3.05 3.05 0 0 0 0 4.33 3.05 3.05 0 0 0 4.33 0L23.38 5.95a11 11 0 0 1 7.89-3.26 11 11 0 0 1 7.9 3.26 11 11 0 0 1 3.25 7.9A11.1 11.1 0 0 1 31.27 25"/><path fill="#151515" d="M11.15 25c-2.98 0-5.78-1.15-7.89-3.26A11 11 0 0 1 0 13.84c0-2.98 1.15-5.78 3.26-7.89a11 11 0 0 1 7.9-3.26c2.98 0 5.78 1.15 7.89 3.26l-.96.96a9.8 9.8 0 0 0-13.87 0 9.8 9.8 0 0 0 6.93 16.75 9.7 9.7 0 0 0 6.94-2.88l10.05-10.06a4.42 4.42 0 1 1 0 6.25l.96-.96a3.05 3.05 0 0 0 4.33 0 3.05 3.05 0 0 0 0-4.33 3.05 3.05 0 0 0-4.33 0L19.05 21.74a11 11 0 0 1-7.9 3.26"/></svg>
